X:5580
T:Road to Recovery, The
O:england
C:Liz Carroll
S:from Liz Carroll's solo album
D:Liz Carroll (Green Linnet 1092)
N:transcribed by Alan Ng
E:15
R:reel
M:C|
K:Am
DA,B,C DFAF|cGBG cGBG|DA,B,C D_B, ~_B,2|F_B,DB, GCEC|\
DA,B,C DFAF|cGBG cGBG|F_B ~B2 AFCE|EDCE FDD2:|
E:18
|:Ad ~d2 fd ~d2|fdgd ad ~d2|Ad ~d2 fd ~d2|adgd ec ~c2|\
c ~G3 FD ~D2|ADED C3 E|FD_B,F DA,FD|_B,DCE FDD2:|
\bigskip


